public/logo-manger-bouger.svg

<svg width="112" height="19" viewBox="0 0 112 19" fill="none" xmlns="http://www.w3.org/2000/svg">
<g clip-path="url(#clip0_9231_35665)">
<path fill-rule="evenodd" clip-rule="evenodd" d="M0.142578 15.965L0.307578 12.275L0.217578 8.00001L0.262578 6.20001L0.142578 3.50001V2.61501C0.142578 1.94001 0.337578 1.61001 0.727578 1.61001H0.847578C1.25258 1.61001 2.22758 2.96001 3.78758 5.64501C4.18025 6.32817 4.63197 6.97564 5.13758 7.58001H5.18258C5.48258 7.11501 6.00758 5.82501 6.74258 3.72501C6.95896 3.07564 7.22473 2.4438 7.53758 1.83501L7.70258 1.71501H8.07758C8.43758 1.71501 8.70758 1.82001 8.87258 2.01501C8.64923 5.25518 8.53916 8.50216 8.54258 11.75V13.7C8.54258 15.23 8.60258 16.385 8.75258 17.135V17.18C8.75258 17.54 8.63258 17.72 8.37758 17.72H8.19758C7.68758 17.72 7.44758 17.075 7.44758 15.785L7.35758 11.675V9.69501C7.35758 8.16501 7.40258 6.69501 7.47758 5.28501C7.10182 6.00591 6.8051 6.76532 6.59258 7.55001C6.42758 7.67001 6.23258 8.24001 6.00758 9.27501C5.85758 9.53001 5.67758 9.65001 5.42258 9.65001C4.98758 9.65001 4.55258 9.14001 4.11758 8.09001C3.65258 7.41501 2.93258 6.26001 1.97258 4.65501L1.22258 3.69501C1.31258 5.60001 1.34258 7.80501 1.34258 10.28V15.155L1.38758 17C1.29758 17.42 1.22258 17.63 1.13258 17.63H0.877578C0.457578 17.63 0.247578 17.435 0.247578 17.045C0.187578 16.79 0.142578 16.43 0.142578 15.965ZM13.3726 9.03501C14.9626 8.81001 15.7726 8.64501 15.7726 8.57001L15.8176 8.10501C15.8176 7.91001 15.6526 6.90501 15.3076 5.12001C15.3076 4.55001 15.2176 4.02501 15.0526 3.53001V3.44001H15.0076C14.5194 5.32114 13.9741 7.187 13.3726 9.03501ZM10.4326 17.135C10.4326 15.98 10.9576 13.61 12.0226 9.99501C12.0226 9.71001 12.3226 8.79501 12.9526 7.22001L14.5876 1.89501C14.5876 1.76001 14.6776 1.62501 14.8876 1.47501H15.0526C15.3676 1.47501 15.5926 1.79001 15.7276 2.40501C15.9976 3.00501 16.2526 4.08501 16.4776 5.63001C16.5976 6.84951 16.8076 8.05701 17.1076 9.24501L17.0626 9.75501C17.2028 12.2389 17.803 14.6752 18.8326 16.94L18.9226 17.525C18.9226 17.615 18.8026 17.675 18.5476 17.735H18.4576C17.9926 17.735 17.4826 16.64 16.9426 14.465C16.3946 13.0554 16.0804 11.5658 16.0126 10.055V9.63501H15.9676C14.0026 9.89001 13.0276 10.1 13.0276 10.265C12.4126 12.065 11.8576 14.18 11.3926 16.61C11.2726 17.15 11.1226 17.405 10.9726 17.405H10.8526C10.7653 17.3998 10.6808 17.3722 10.6073 17.3249C10.5337 17.2776 10.4736 17.2122 10.4326 17.135ZM19.7776 17.33V17.165L19.8976 5.54001L19.7776 3.53001V3.06501C19.7776 2.67501 19.9426 2.48001 20.2876 2.48001H20.3776C20.7226 2.48001 21.0526 3.09501 21.3376 4.32501C21.9826 5.94501 22.6576 8.12001 23.3926 10.835C23.8576 12.32 24.3376 13.58 24.8176 14.615H24.8626V14.525C24.8626 13.355 25.0576 9.59001 25.4476 3.23001C25.5376 2.79501 25.6576 2.49501 25.8226 2.34501H26.0326C26.1826 2.34501 26.3626 2.42001 26.6176 2.55501C26.1976 8.55501 25.9876 12.695 25.9876 14.975L26.0776 17.45C26.0776 18.035 25.9126 18.335 25.6126 18.335H25.5676C24.9976 18.335 24.4576 17.405 23.9776 15.53C22.782 12.5945 21.7995 9.5767 21.0376 6.50001H20.9476C20.8576 6.96501 20.8276 7.35501 20.8276 7.71501V16.145C20.8276 16.79 20.8426 17.27 20.9176 17.57C20.9176 18.14 20.7226 18.41 20.3326 18.41C19.9576 18.425 19.7776 18.065 19.7776 17.33ZM27.2326 9.54501V8.96001C27.2326 7.05501 28.0876 4.89501 29.8276 2.49501C30.3376 1.94001 30.9226 1.65501 31.5526 1.65501H31.8826C32.9934 1.74529 34.0851 1.99798 35.1226 2.40501C35.3476 2.58501 35.4526 2.75001 35.4526 2.91501V3.08001C35.4076 3.20001 35.3026 3.24501 35.1526 3.24501C35.0326 3.24501 34.7026 3.11001 34.1476 2.82501C33.4975 2.61639 32.8202 2.50519 32.1376 2.49501H31.8976C31.1776 2.49501 30.6226 2.97501 30.1726 3.92001C29.0791 5.40109 28.4382 7.16733 28.3276 9.00501V9.68001C28.3276 10.445 28.6276 11.675 29.2126 13.37C29.7037 14.6652 30.6614 15.7299 31.8976 16.355C32.5426 16.67 33.0676 16.82 33.4576 16.82H33.6226C34.8226 16.82 35.4226 15.635 35.4226 13.25L35.3026 10.61L34.0876 10.73C33.4726 10.67 33.1576 10.535 33.1576 10.355V10.145C33.1576 9.72501 33.9376 9.51501 35.5126 9.51501H35.7676C37.1176 9.51501 37.7776 9.74001 37.7776 10.19V10.235C37.7776 10.46 37.6276 10.595 37.3126 10.655L36.4726 10.535L36.4276 10.955V13.76C36.4276 15.965 35.7526 17.27 34.4176 17.66L33.7426 17.75C32.7826 17.75 31.6426 17.33 30.3076 16.49C29.353 15.6459 28.582 14.6145 28.0426 13.46C27.5372 12.215 27.2627 10.8884 27.2326 9.54501ZM38.8276 17.48V17.36C38.8276 17.165 39.0376 16.985 39.4576 16.775L39.5026 16.61C39.5026 14.345 39.6076 12.095 39.8326 9.89001C39.8326 9.48501 39.7126 9.17001 39.5026 8.96001C39.7576 8.73501 39.8776 8.27001 39.8776 7.61001V6.26001L39.9676 3.78501V3.66501C39.9676 2.97501 39.8026 2.61501 39.5026 2.61501C39.3076 2.51001 39.2026 2.39001 39.2026 2.24001C39.2026 1.98501 39.5026 1.82001 40.0876 1.73001C40.0876 1.67001 40.1476 1.64001 40.2526 1.64001L41.5576 1.80501L44.3326 1.68501C45.6376 1.68501 46.3126 1.89501 46.3126 2.31501C46.3126 2.52501 46.1176 2.64501 45.7276 2.69001H45.5476L44.1976 2.60001H43.9876L40.7926 2.72001L40.8826 4.56501V8.00001L40.9276 8.30001L41.3476 8.25501H42.0226L45.8026 8.37501C46.2226 8.46501 46.4326 8.63001 46.4326 8.91501V8.96001C46.2676 9.18501 45.9976 9.29001 45.6376 9.29001L43.6276 9.17001H43.5376C41.7826 9.20001 40.8976 9.27501 40.8976 9.38001C40.7302 11.8515 40.6451 14.3279 40.6426 16.805H40.6876C40.6876 16.76 42.1276 16.715 45.0076 16.64L45.6826 16.55C45.8447 16.5425 46.0067 16.5678 46.1588 16.6245C46.3109 16.6812 46.45 16.7681 46.5676 16.88C46.5676 17.33 46.2526 17.555 45.6376 17.555H45.1276L42.6076 17.675H41.4376C41.2163 17.6819 40.9987 17.7333 40.7977 17.8261C40.5967 17.9188 40.4164 18.0511 40.2676 18.215H40.1476C40.0576 18.215 39.7876 18.05 39.3076 17.705C38.9776 17.675 38.8276 17.585 38.8276 17.48ZM48.3676 2.91501L48.4126 3.03501C48.5476 6.24501 48.6226 8.54001 48.6226 9.87501L48.5776 10.715C49.8554 10.0814 50.8466 8.98845 51.3526 7.65501C51.6045 6.87867 51.7459 6.07075 51.7726 5.25501C51.7726 4.08501 51.6076 3.50001 51.2626 3.50001C50.6564 3.04925 49.9179 2.8119 49.1626 2.82501L48.3676 2.91501ZM47.2276 15.545V13.955L47.4376 7.37001V7.16001C47.4376 5.34501 47.3776 3.83001 47.2726 2.58501C47.2726 2.16501 47.4376 1.95501 47.7826 1.95501H48.9226C50.3026 1.95501 51.4276 2.31501 52.3276 3.05001C52.7926 3.59001 53.0476 4.31001 53.0476 5.22501C53.0475 6.97225 52.4374 8.66464 51.3226 10.01L50.8576 10.385C51.5476 11.525 52.1926 12.965 52.7926 14.75L53.4676 17.39C53.3476 17.705 53.1076 17.855 52.7476 17.855C52.3876 17.855 52.2076 17.69 52.2076 17.345C51.7435 15.2327 50.9808 13.1972 49.9426 11.3C49.442 11.4467 48.9629 11.6585 48.5176 11.93L48.4276 13.49L48.4726 17.645L48.0076 17.81C47.6776 17.81 47.4826 17.6 47.4226 17.18C47.2876 16.685 47.2276 16.145 47.2276 15.545ZM58.2226 1.70001L58.3426 4.64001L58.2526 8.63001H58.6276L59.4676 8.67501L61.4776 7.53501C62.2876 6.86001 62.6926 6.05001 62.6926 5.10501C62.6926 3.62001 61.5676 2.45001 59.3326 1.62501H58.8226L58.2226 1.70001ZM58.0576 15.455L58.1476 16.715L60.4126 15.71C61.3126 15.125 61.9726 14.21 62.3926 12.98L62.4376 12.515V12.47C62.4376 11.09 61.4776 10.205 59.5426 9.78501C59.2426 9.78501 58.8076 9.84501 58.2376 9.95001L58.2826 11.12L58.0576 15.455ZM56.8726 16.505V15.875L56.9626 14.075V12.695L57.0826 10.505V10.25L57.2926 3.78501C57.2926 3.06501 57.1876 2.25501 56.9926 1.31001C56.9926 0.98001 57.4576 0.75501 58.4176 0.63501H59.0026C59.8576 0.63501 61.0426 1.25001 62.5276 2.43501C62.914 2.82074 63.2202 3.27908 63.4287 3.78365C63.6373 4.28822 63.7439 4.82905 63.7426 5.37501C63.7426 6.78501 63.0076 7.89501 61.5526 8.73501L61.0126 9.15501V9.20001C61.8076 9.60501 62.4676 10.085 62.9926 10.67C63.2926 11.195 63.4576 11.75 63.4576 12.35V12.725C63.4576 13.97 62.7376 15.2 61.3126 16.415C60.3121 16.9279 59.2741 17.3642 58.2076 17.72H57.9076C57.6376 17.72 57.2926 17.39 56.9026 16.715L56.8726 16.505ZM65.7826 10.205C65.7283 12.0701 66.1792 13.9152 67.0876 15.545C67.9876 16.475 68.9476 16.94 69.9376 16.94H70.2376C71.5726 16.94 72.5176 15.53 73.0876 12.695C73.2826 11.375 73.3876 10.25 73.3876 9.32001C73.3876 6.03501 72.5926 3.92001 71.0026 2.97501C70.5781 2.69848 70.0841 2.54768 69.5776 2.54001C67.8976 2.54001 66.7276 4.19001 66.0526 7.47501C65.8809 8.34448 65.7955 9.22876 65.7976 10.115V10.205H65.7826ZM64.6876 10.295V9.21501C64.6876 7.07001 65.2126 4.94001 66.2776 2.84001C67.1626 1.83501 68.0026 1.31001 68.7976 1.31001H69.1726C70.0777 1.26941 70.9687 1.54519 71.6926 2.09001C72.4126 2.28501 72.8926 2.60001 73.1176 3.05001C74.0882 4.86648 74.5787 6.90079 74.5426 8.96001C74.5426 10.745 74.2126 12.8 73.5826 15.125C72.8176 17.03 71.6476 17.99 70.0576 17.99C68.5426 17.99 67.1776 17.255 65.9476 15.77C65.1076 14.495 64.6876 12.665 64.6876 10.295ZM75.3676 9.38001V7.58001C75.4576 3.83001 75.5926 1.95501 75.7876 1.95501L75.8326 1.91001H76.0876C76.3276 1.91001 76.5376 2.01501 76.7176 2.21001V2.25501L76.5526 10.055C76.5526 13.955 77.1076 16.265 78.2326 16.985C78.5026 17.15 78.7726 17.24 79.0276 17.24H79.1926C80.2276 17.24 81.0676 16.52 81.7126 15.095C81.9976 13.8155 82.1221 12.506 82.0876 11.195C82.0121 8.32019 81.842 5.44863 81.5776 2.58501C81.5776 2.16501 81.7726 1.95501 82.1626 1.95501H82.2076C82.6426 1.95501 82.8826 2.43501 82.8826 3.38001C83.1076 7.07001 83.2126 9.92001 83.2126 11.9V12.53C83.2126 14.75 82.8076 16.145 81.9976 16.73C81.1576 17.735 80.2126 18.245 79.1476 18.245C77.5576 18.245 76.4926 17.285 75.9526 15.35C75.5365 13.3879 75.3403 11.3856 75.3676 9.38001ZM84.0226 9.92001V9.33501C84.0226 7.43001 84.8776 5.27001 86.6176 2.87001C87.1276 2.31501 87.7126 2.03001 88.3426 2.03001H88.6726C89.3776 2.03001 90.4576 2.28501 91.8976 2.78001C92.1226 2.96001 92.2276 3.12501 92.2276 3.29001V3.45501C92.1826 3.57501 92.0776 3.62001 91.9276 3.62001C91.8076 3.62001 91.4776 3.48501 90.9226 3.20001C90.2726 2.99139 89.5952 2.88019 88.9126 2.87001H88.6576C87.9376 2.87001 87.3826 3.35001 86.9326 4.29501C85.8391 5.77609 85.1982 7.54233 85.0876 9.38001V10.055C85.0876 10.82 85.3876 12.05 85.9726 13.745C86.4637 15.0402 87.4215 16.1049 88.6576 16.73C89.3026 17.045 89.8276 17.195 90.2176 17.195H90.3826C91.5826 17.195 92.1826 16.01 92.1826 13.625L92.0626 10.985L90.8476 11.105C90.2326 11.045 89.9176 10.91 89.9176 10.73V10.52C89.9176 10.1 90.6976 9.89001 92.2726 9.89001H92.5276C93.8776 9.89001 94.5376 10.115 94.5376 10.565V10.61C94.5376 10.835 94.3876 10.97 94.0726 11.03L93.2326 10.91L93.1876 11.33V14.135C93.1876 16.34 92.5126 17.645 91.1776 18.035L90.5026 18.125C89.5426 18.125 88.4026 17.705 87.0676 16.865C86.113 16.0209 85.342 14.9895 84.8026 13.835C84.3188 12.5847 84.0549 11.2602 84.0226 9.92001ZM95.9926 17.225V17.105C95.9926 16.91 96.2026 16.73 96.6226 16.52L96.6676 16.355C96.6676 14.09 96.7726 11.84 96.9976 9.63501C96.9976 9.23001 96.8776 8.91501 96.6676 8.70501C96.9226 8.48001 97.0426 8.01501 97.0426 7.35501V6.00501L97.1326 3.53001V3.41001C97.1326 2.72001 96.9676 2.36001 96.6676 2.36001C96.4726 2.25501 96.3676 2.13501 96.3676 1.98501C96.3676 1.73001 96.6676 1.56501 97.2526 1.47501C97.2526 1.41501 97.3126 1.38501 97.4176 1.38501L98.7226 1.55001L101.498 1.43001C102.803 1.43001 103.463 1.64001 103.463 2.06001C103.463 2.27001 103.268 2.39001 102.878 2.43501H102.713L101.378 2.34501H101.168L97.9726 2.46501L98.0626 4.31001V7.71501L98.1076 8.01501L98.5276 7.97001H99.2026L102.983 8.09001C103.403 8.18001 103.613 8.34501 103.613 8.63001V8.67501C103.448 8.90001 103.178 9.00501 102.818 9.00501L100.808 8.88501H100.718C98.9476 8.91501 98.0776 8.99001 98.0776 9.09501C97.9102 11.5665 97.8251 14.0429 97.8226 16.52H97.8676C97.8676 16.475 99.3076 16.43 102.188 16.355L102.863 16.265C103.025 16.2575 103.187 16.2828 103.339 16.3395C103.491 16.3962 103.63 16.4831 103.748 16.595C103.748 17.045 103.433 17.27 102.818 17.27H102.308L99.7876 17.39H98.6176C98.3963 17.3969 98.1787 17.4483 97.9777 17.5411C97.7767 17.6338 97.5964 17.7661 97.4476 17.93H97.2976C97.2076 17.93 96.9376 17.765 96.4576 17.42C96.1426 17.42 95.9926 17.33 95.9926 17.225ZM105.908 3.17001L105.953 3.29001C106.088 6.50001 106.163 8.79501 106.163 10.13L106.118 10.97C107.395 10.3364 108.387 9.24345 108.893 7.91001C109.144 7.13367 109.286 6.32575 109.313 5.51001C109.313 4.34001 109.148 3.75501 108.803 3.75501C108.196 3.30425 107.458 3.0669 106.703 3.08001L105.908 3.17001ZM104.783 15.8V14.21L104.993 7.62501V7.40001C104.993 5.58501 104.933 4.07001 104.828 2.82501C104.828 2.40501 104.993 2.19501 105.338 2.19501H106.478C107.858 2.19501 108.983 2.55501 109.883 3.29001C110.348 3.83001 110.603 4.55001 110.603 5.46501C110.603 7.21225 109.992 8.90464 108.878 10.25L108.413 10.625C109.103 11.765 109.748 13.205 110.348 14.99L111.023 17.63C110.903 17.945 110.663 18.095 110.303 18.095C109.928 18.095 109.763 17.93 109.763 17.585C109.299 15.4727 108.536 13.4372 107.498 11.54C106.997 11.6867 106.518 11.8985 106.073 12.17L105.983 13.73L105.998 17.9L105.533 18.065C105.203 18.065 105.008 17.855 104.948 17.435C104.828 16.94 104.783 16.4 104.783 15.8Z" fill="#08080A"/>
</g>
<defs>
<clipPath id="clip0_9231_35665">
<rect width="111" height="18" fill="white" transform="translate(0.0976562 0.5)"/>
</clipPath>
</defs>
</svg>

<svg xmlns="http://www.w3.org/2000/svg" width="112" height="19" fill="none"><g clip-path="url(#a)"><path fill="#08080A" fill-rule="evenodd" d="m.143 15.965.165-3.69L.218 8l.045-1.8-.12-2.7v-.885c0-.675.195-1.005.585-1.005h.12c.405 0 1.38 1.35 2.94 4.035a13.5 13.5 0 0 0 1.35 1.935h.045c.3-.465.825-1.755 1.56-3.855q.325-.976.795-1.89l.165-.12h.375c.36 0 .63.105.795.3q-.336 4.862-.33 9.735v1.95c0 1.53.06 2.685.21 3.435v.045c0 .36-.12.54-.375.54h-.18c-.51 0-.75-.645-.75-1.935l-.09-4.11v-1.98c0-1.53.045-3 .12-4.41a11.3 11.3 0 0 0-.885 2.265c-.165.12-.36.69-.585 1.725-.15.255-.33.375-.585.375-.435 0-.87-.51-1.305-1.56-.465-.675-1.185-1.83-2.145-3.435l-.75-.96c.09 1.905.12 4.11.12 6.585v4.875L1.388 17c-.09.42-.165.63-.255.63H.878q-.63 0-.63-.585a4.8 4.8 0 0 1-.105-1.08m13.23-6.93c1.59-.225 2.4-.39 2.4-.465l.045-.465c0-.195-.165-1.2-.51-2.985 0-.57-.09-1.095-.255-1.59v-.09h-.045a96 96 0 0 1-1.635 5.595m-2.94 8.1c0-1.155.525-3.525 1.59-7.14 0-.285.3-1.2.93-2.775l1.635-5.325c0-.135.09-.27.3-.42h.165c.315 0 .54.315.675.93.27.6.525 1.68.75 3.225q.18 1.832.63 3.615l-.045.51c.14 2.484.74 4.92 1.77 7.185l.09.585c0 .09-.12.15-.375.21h-.09c-.465 0-.975-1.095-1.515-3.27a13.9 13.9 0 0 1-.93-4.41v-.42h-.045c-1.965.255-2.94.465-2.94.63-.615 1.8-1.17 3.915-1.635 6.345-.12.54-.27.795-.42.795h-.12a.51.51 0 0 1-.42-.27m9.345.195v-.165l.12-11.625-.12-2.01v-.465c0-.39.165-.585.51-.585h.09c.345 0 .675.615.96 1.845.645 1.62 1.32 3.795 2.055 6.51.465 1.485.945 2.745 1.425 3.78h.045v-.09q0-1.755.585-11.295c.09-.435.21-.735.375-.885h.21c.15 0 .33.075.585.21q-.63 9-.63 12.42l.09 2.475c0 .585-.165.885-.465.885h-.045c-.57 0-1.11-.93-1.59-2.805a66 66 0 0 1-2.94-9.03h-.09c-.09.465-.12.855-.12 1.215v8.43c0 .645.015 1.125.09 1.425 0 .57-.195.84-.585.84-.375.015-.555-.345-.555-1.08m7.455-7.785V8.96c0-1.905.855-4.065 2.595-6.465.51-.555 1.095-.84 1.725-.84h.33a11.4 11.4 0 0 1 3.24.75c.225.18.33.345.33.51v.165c-.045.12-.15.165-.3.165-.12 0-.45-.135-1.005-.42a7 7 0 0 0-2.01-.33h-.24c-.72 0-1.275.48-1.725 1.425a9.53 9.53 0 0 0-1.845 5.085v.675c0 .765.3 1.995.885 3.69a5.55 5.55 0 0 0 2.685 2.985c.645.315 1.17.465 1.56.465h.165c1.2 0 1.8-1.185 1.8-3.57l-.12-2.64-1.215.12c-.615-.06-.93-.195-.93-.375v-.21c0-.42.78-.63 2.355-.63h.255c1.35 0 2.01.225 2.01.675v.045c0 .225-.15.36-.465.42l-.84-.12-.045.42v2.805c0 2.205-.675 3.51-2.01 3.9l-.675.09c-.96 0-2.1-.42-3.435-1.26a9.3 9.3 0 0 1-2.265-3.03 11.1 11.1 0 0 1-.81-3.915m11.595 7.935v-.12c0-.195.21-.375.63-.585l.045-.165c0-2.265.105-4.515.33-6.72 0-.405-.12-.72-.33-.93.255-.225.375-.69.375-1.35V6.26l.09-2.475v-.12c0-.69-.165-1.05-.465-1.05-.195-.105-.3-.225-.3-.375 0-.255.3-.42.885-.51 0-.06.06-.09.165-.09l1.305.165 2.775-.12c1.305 0 1.98.21 1.98.63 0 .21-.195.33-.585.375h-.18l-1.35-.09h-.21l-3.195.12.09 1.845V8l.045.3.42-.045h.675l3.78.12c.42.09.63.255.63.54v.045c-.165.225-.435.33-.795.33l-2.01-.12h-.09c-1.755.03-2.64.105-2.64.21a112 112 0 0 0-.255 7.425h.045c0-.045 1.44-.09 4.32-.165l.675-.09a1.2 1.2 0 0 1 .885.33c0 .45-.315.675-.93.675h-.51l-2.52.12h-1.17a1.65 1.65 0 0 0-1.17.54h-.12c-.09 0-.36-.165-.84-.51-.33-.03-.48-.12-.48-.225m9.54-14.565.045.12c.135 3.21.21 5.505.21 6.84l-.045.84a5.66 5.66 0 0 0 2.775-3.06 8.7 8.7 0 0 0 .42-2.4c0-1.17-.165-1.755-.51-1.755a3.42 3.42 0 0 0-2.1-.675zm-1.14 12.63v-1.59l.21-6.585v-.21c0-1.815-.06-3.33-.165-4.575 0-.42.165-.63.51-.63h1.14c1.38 0 2.505.36 3.405 1.095.465.54.72 1.26.72 2.175a7.5 7.5 0 0 1-1.725 4.785l-.465.375c.69 1.14 1.335 2.58 1.935 4.365l.675 2.64c-.12.315-.36.465-.72.465s-.54-.165-.54-.51a22.8 22.8 0 0 0-2.265-6.045c-.501.147-.98.358-1.425.63l-.09 1.56.045 4.155-.465.165q-.495 0-.585-.63a6.2 6.2 0 0 1-.195-1.635M58.223 1.7l.12 2.94-.09 3.99h.375l.84.045 2.01-1.14q1.215-1.013 1.215-2.43c0-1.485-1.125-2.655-3.36-3.48h-.51zm-.165 13.755.09 1.26 2.265-1.005c.9-.585 1.56-1.5 1.98-2.73l.045-.465v-.045c0-1.38-.96-2.265-2.895-2.685-.3 0-.735.06-1.305.165l.045 1.17zm-1.185 1.05v-.63l.09-1.8v-1.38l.12-2.19v-.255l.21-6.465c0-.72-.105-1.53-.3-2.475 0-.33.465-.555 1.425-.675h.585c.855 0 2.04.615 3.525 1.8a4.14 4.14 0 0 1 1.215 2.94c0 1.41-.735 2.52-2.19 3.36l-.54.42V9.2c.795.405 1.455.885 1.98 1.47.3.525.465 1.08.465 1.68v.375c0 1.245-.72 2.475-2.145 3.69-1 .513-2.039.95-3.105 1.305h-.3c-.27 0-.615-.33-1.005-1.005zm8.91-6.3a10.35 10.35 0 0 0 1.305 5.34c.9.93 1.86 1.395 2.85 1.395h.3c1.335 0 2.28-1.41 2.85-4.245.195-1.32.3-2.445.3-3.375q0-4.927-2.385-6.345a2.7 2.7 0 0 0-1.425-.435c-1.68 0-2.85 1.65-3.525 4.935-.172.87-.257 1.754-.255 2.64v.09zm-1.095.09v-1.08c0-2.145.525-4.275 1.59-6.375.885-1.005 1.725-1.53 2.52-1.53h.375a3.9 3.9 0 0 1 2.52.78c.72.195 1.2.51 1.425.96a12.1 12.1 0 0 1 1.425 5.91c0 1.785-.33 3.84-.96 6.165-.765 1.905-1.935 2.865-3.525 2.865-1.515 0-2.88-.735-4.11-2.22-.84-1.275-1.26-3.105-1.26-5.475m10.68-.915v-1.8c.09-3.75.225-5.625.42-5.625l.045-.045h.255c.24 0 .45.105.63.3v.045l-.165 7.8c0 3.9.555 6.21 1.68 6.93.27.165.54.255.795.255h.165c1.035 0 1.875-.72 2.52-2.145.285-1.28.41-2.589.375-3.9a131 131 0 0 0-.51-8.61q0-.63.585-.63h.045c.435 0 .675.48.675 1.425.225 3.69.33 6.54.33 8.52v.63c0 2.22-.405 3.615-1.215 4.2-.84 1.005-1.785 1.515-2.85 1.515-1.59 0-2.655-.96-3.195-2.895a27 27 0 0 1-.585-5.97m8.655.54v-.585c0-1.905.855-4.065 2.595-6.465.51-.555 1.095-.84 1.725-.84h.33c.705 0 1.785.255 3.225.75.225.18.33.345.33.51v.165c-.045.12-.15.165-.3.165-.12 0-.45-.135-1.005-.42a7 7 0 0 0-2.01-.33h-.255c-.72 0-1.275.48-1.725 1.425a9.53 9.53 0 0 0-1.845 5.085v.675c0 .765.3 1.995.885 3.69a5.55 5.55 0 0 0 2.685 2.985c.645.315 1.17.465 1.56.465h.165c1.2 0 1.8-1.185 1.8-3.57l-.12-2.64-1.215.12c-.615-.06-.93-.195-.93-.375v-.21c0-.42.78-.63 2.355-.63h.255c1.35 0 2.01.225 2.01.675v.045c0 .225-.15.36-.465.42l-.84-.12-.045.42v2.805c0 2.205-.675 3.51-2.01 3.9l-.675.09c-.96 0-2.1-.42-3.435-1.26a9.3 9.3 0 0 1-2.265-3.03 11.6 11.6 0 0 1-.78-3.915m11.97 7.305v-.12c0-.195.21-.375.63-.585l.045-.165c0-2.265.105-4.515.33-6.72 0-.405-.12-.72-.33-.93.255-.225.375-.69.375-1.35v-1.35l.09-2.475v-.12c0-.69-.165-1.05-.465-1.05-.195-.105-.3-.225-.3-.375 0-.255.3-.42.885-.51 0-.06.06-.09.165-.09l1.305.165 2.775-.12c1.305 0 1.965.21 1.965.63 0 .21-.195.33-.585.375h-.165l-1.335-.09h-.21l-3.195.12.09 1.845v3.405l.045.3.42-.045h.675l3.78.12c.42.09.63.255.63.54v.045c-.165.225-.435.33-.795.33l-2.01-.12h-.09c-1.77.03-2.64.105-2.64.21a112 112 0 0 0-.255 7.425h.045c0-.045 1.44-.09 4.32-.165l.675-.09a1.2 1.2 0 0 1 .885.33c0 .45-.315.675-.93.675h-.51l-2.52.12h-1.17a1.65 1.65 0 0 0-1.17.54h-.15c-.09 0-.36-.165-.84-.51-.315 0-.465-.09-.465-.195m9.915-14.055.045.12c.135 3.21.21 5.505.21 6.84l-.045.84a5.66 5.66 0 0 0 2.775-3.06 8.7 8.7 0 0 0 .42-2.4c0-1.17-.165-1.755-.51-1.755a3.42 3.42 0 0 0-2.1-.675zm-1.125 12.63v-1.59l.21-6.585V7.4c0-1.815-.06-3.33-.165-4.575 0-.42.165-.63.51-.63h1.14c1.38 0 2.505.36 3.405 1.095.465.54.72 1.26.72 2.175 0 1.747-.611 3.44-1.725 4.785l-.465.375c.69 1.14 1.335 2.58 1.935 4.365l.675 2.64c-.12.315-.36.465-.72.465-.375 0-.54-.165-.54-.51a22.8 22.8 0 0 0-2.265-6.045c-.501.147-.98.359-1.425.63l-.09 1.56.015 4.17-.465.165q-.495 0-.585-.63c-.12-.495-.165-1.035-.165-1.635" clip-rule="evenodd"/></g><defs><clipPath id="a"><path fill="#fff" d="M.098.5h111v18h-111z"/></clipPath></defs></svg>
